img/advantage/grey/icon-2.svg

<svg width="61" height="53" viewBox="0 0 61 53" fill="none" xmlns="http://www.w3.org/2000/svg">
<path d="M53.8594 0.09375C53.59 0.09375 53.3317 0.200753 53.1412 0.39122C52.9508 0.581686 52.8438 0.840015 52.8438 1.10938V6.1875H8.15625V1.10938C8.15625 0.840015 8.04925 0.581686 7.85878 0.39122C7.66831 0.200753 7.40999 0.09375 7.14062 0.09375C5.25576 0.0959004 3.44871 0.845613 2.11591 2.17841C0.783113 3.51121 0.0334004 5.31826 0.03125 7.20312V46.0102C0.0339365 47.8383 0.76135 49.5908 2.05404 50.8835C3.34672 52.1762 5.09921 52.9036 6.92734 52.9062H54.0727C55.9015 52.9036 57.6546 52.1756 58.9474 50.882C60.2402 49.5885 60.9671 47.8349 60.9688 46.0061V7.20312C60.9666 5.31826 60.2169 3.51121 58.8841 2.17841C57.5513 0.845613 55.7442 0.0959004 53.8594 0.09375ZM2.0625 7.20312C2.06379 6.03287 2.46858 4.89885 3.20863 3.99229C3.94867 3.08574 4.97869 2.46211 6.125 2.22656V38.7586C4.58062 38.9821 3.15287 39.7081 2.0625 40.8244V7.20312ZM58.9375 46.0102C58.9348 47.2996 58.4214 48.5354 57.5097 49.4472C56.5979 50.3589 55.3621 50.8723 54.0727 50.875H6.92734C5.63723 50.8723 4.40078 50.3583 3.48891 49.4457C2.57704 48.5331 2.06411 47.2962 2.0625 46.0061V45.7969C2.06411 44.4506 2.59965 43.1599 3.55163 42.2079C4.50361 41.2559 5.79432 40.7204 7.14062 40.7188C7.40999 40.7188 7.66831 40.6117 7.85878 40.4213C8.04925 40.2308 8.15625 39.9725 8.15625 39.7031V8.21875H52.8438V39.7031C52.8438 39.9725 52.9508 40.2308 53.1412 40.4213C53.3317 40.6117 53.59 40.7188 53.8594 40.7188C55.2057 40.7204 56.4964 41.2559 57.4484 42.2079C58.4004 43.1599 58.9359 44.4506 58.9375 45.7969V46.0102ZM58.9375 40.8254C57.8471 39.7091 56.4194 38.9831 54.875 38.7596V2.22656C56.0213 2.46211 57.0513 3.08574 57.7914 3.99229C58.5314 4.89885 58.9362 6.03287 58.9375 7.20312V40.8254Z" fill="#9898A7"/>
<path d="M49.7969 14.3125H20.3438C20.0744 14.3125 19.8161 14.4195 19.6256 14.61C19.4351 14.8004 19.3281 15.0588 19.3281 15.3281V22.4375H11.2031C10.9338 22.4375 10.6754 22.5445 10.485 22.735C10.2945 22.9254 10.1875 23.1838 10.1875 23.4531V43.7656C10.1875 44.035 10.2945 44.2933 10.485 44.4838C10.6754 44.6742 10.9338 44.7812 11.2031 44.7812H35.5781C35.8475 44.7812 36.1058 44.6742 36.2963 44.4838C36.4867 44.2933 36.5938 44.035 36.5938 43.7656V30.5625H43.7031C43.9725 30.5625 44.2308 30.4555 44.4213 30.265C44.6117 30.0746 44.7188 29.8162 44.7188 29.5469C44.7188 29.2775 44.6117 29.0192 44.4213 28.8287C44.2308 28.6383 43.9725 28.5312 43.7031 28.5312H25.4219C25.1525 28.5312 24.8942 28.6383 24.7037 28.8287C24.5133 29.0192 24.4062 29.2775 24.4062 29.5469V34.625C24.4062 34.8944 24.5133 35.1527 24.7037 35.3432C24.8942 35.5336 25.1525 35.6406 25.4219 35.6406C25.6912 35.6406 25.9496 35.5336 26.14 35.3432C26.3305 35.1527 26.4375 34.8944 26.4375 34.625V30.5625H34.5625V42.75H26.4375V38.6875C26.4375 38.4181 26.3305 38.1598 26.14 37.9693C25.9496 37.7789 25.6912 37.6719 25.4219 37.6719C25.1525 37.6719 24.8942 37.7789 24.7037 37.9693C24.5133 38.1598 24.4062 38.4181 24.4062 38.6875V42.75H12.2188V34.625H20.3438C20.6131 34.625 20.8714 34.518 21.0619 34.3275C21.2524 34.1371 21.3594 33.8787 21.3594 33.6094C21.3594 33.34 21.2524 33.0817 21.0619 32.8912C20.8714 32.7008 20.6131 32.5938 20.3438 32.5938H12.2188V24.4688H20.3438C20.6131 24.4688 20.8714 24.3617 21.0619 24.1713C21.2524 23.9808 21.3594 23.7225 21.3594 23.4531V16.3438H34.5625V24.4688C34.5625 24.7381 34.6695 24.9964 34.86 25.1869C35.0504 25.3774 35.3088 25.4844 35.5781 25.4844C35.8475 25.4844 36.1058 25.3774 36.2963 25.1869C36.4867 24.9964 36.5938 24.7381 36.5938 24.4688V16.3438H41.742C41.9698 18.1311 42.7847 19.7921 44.0588 21.0662C45.3329 22.3403 46.9939 23.1552 48.7812 23.383V42.75H40.6562C40.3869 42.75 40.1286 42.857 39.9381 43.0475C39.7476 43.2379 39.6406 43.4963 39.6406 43.7656C39.6406 44.035 39.7476 44.2933 39.9381 44.4838C40.1286 44.6742 40.3869 44.7812 40.6562 44.7812H49.7969C50.0662 44.7812 50.3246 44.6742 50.515 44.4838C50.7055 44.2933 50.8125 44.035 50.8125 43.7656V15.3281C50.8125 15.0588 50.7055 14.8004 50.515 14.61C50.3246 14.4195 50.0662 14.3125 49.7969 14.3125ZM43.7945 16.3438H48.7812V21.3305C47.5361 21.1177 46.3877 20.5237 45.4945 19.6305C44.6013 18.7373 44.0073 17.5889 43.7945 16.3438Z" fill="#9898A7"/>
</svg>

<svg width="61" height="53" fill="none" xmlns="http://www.w3.org/2000/svg"><path d="M53.86.094a1.016 1.016 0 0 0-1.016 1.015v5.079H8.156V1.109A1.016 1.016 0 0 0 7.141.094a7.118 7.118 0 0 0-7.11 7.11V46.01a6.906 6.906 0 0 0 6.896 6.896h47.146a6.906 6.906 0 0 0 6.896-6.9V7.203a7.118 7.118 0 0 0-7.11-7.11zM2.062 7.204a5.086 5.086 0 0 1 4.062-4.977v36.532a7.1 7.1 0 0 0-4.063 2.065V7.204zM58.937 46.01a4.875 4.875 0 0 1-4.864 4.865H6.927a4.875 4.875 0 0 1-4.864-4.869v-.21A5.084 5.084 0 0 1 7.14 40.72a1.016 1.016 0 0 0 1.015-1.016V8.22h44.688v31.484a1.016 1.016 0 0 0 1.015 1.016 5.084 5.084 0 0 1 5.078 5.078v.213zm0-5.185a7.1 7.1 0 0 0-4.062-2.065V2.227a5.087 5.087 0 0 1 4.063 4.976v33.622z" fill="#9898A7"/><path d="M49.797 14.313H20.344a1.016 1.016 0 0 0-1.016 1.015v7.11h-8.125a1.015 1.015 0 0 0-1.015 1.015v20.313a1.016 1.016 0 0 0 1.015 1.015h24.375a1.016 1.016 0 0 0 1.016-1.015V30.563h7.11a1.016 1.016 0 1 0 0-2.032H25.421a1.016 1.016 0 0 0-1.016 1.016v5.078a1.016 1.016 0 0 0 2.032 0v-4.063h8.125V42.75h-8.126v-4.063a1.016 1.016 0 1 0-2.03 0v4.063H12.218v-8.125h8.125a1.016 1.016 0 0 0 0-2.031h-8.125v-8.125h8.125a1.016 1.016 0 0 0 1.015-1.016v-7.11h13.203v8.126a1.016 1.016 0 0 0 2.032 0v-8.125h5.148a8.133 8.133 0 0 0 7.04 7.039V42.75h-8.126a1.016 1.016 0 0 0 0 2.031h9.14a1.016 1.016 0 0 0 1.017-1.015V15.328a1.015 1.015 0 0 0-1.016-1.015zm-6.002 2.03h4.986v4.988a6.102 6.102 0 0 1-4.986-4.987z" fill="#9898A7"/></svg>
